X:0010
M:6/8
L:1/8
Q:3/8=112
K:D
d2f agf|e2f gfe|fed edc|dAG FED|
d2f agf|e2f gfe|fed edc|d3  D3:|
f2d cBA|AdG FED|DFD EGE|FAG FED|

